!!!!SEGMENT: Ric3011-Hors_de_plaisir.krn
!!!id: Ric3011
!!!AGN: Chanson
!!!voices: 4
!!!COM: Jean Richafort
!!!OTL: Hors de plaisir
**kern	**kern	**kern	**kern
*part4	*part3	*part2	*part1
*staff4	*staff3	*staff2	*staff1
*I"Bassus	*I"Tenor	*I"Altus	*I"Superius
*I'B	*I'T	*I'A	*I'S
*clefF4	*clefGv2	*clefGv2	*clefG2
*k[]	*k[]	*k[]	*k[]
*C:	*C:	*C:	*C:
*M2/1	*M2/1	*M2/1	*M2/1
*met(C|)	*met(C|)	*met(C|)	*met(C|)
=1	=1	=1	=1
0E	0B	0e	0e
=2	=2	=2	=2
1C	1c	1e	1g
[1F	[1A	[1c	2a
.	.	.	[2cc
=3	=3	=3	=3
1F]	1A]	2c]	2cc]
.	.	2d	4b
.	.	.	4a
[1E	1B	[1e	[1g
=4	=4	=4	=4
1E]	2r	1e]	1g]
.	2B	.	.
2r	2B	2r	2r
2E	2B	2e	2g
=5	=5	=5	=5
2E	2G	2e	2g
2E	2.c	2e	2g
[1F	.	[1c	4a
.	4B	.	4g
.	4A	.	4a
.	4G	.	4b
=6	=6	=6	=6
2F]	2A	2c]	2cc
2G	2B	2g	2.b
2A	2c	2e	.
.	.	.	4a
2D	2d	2f	[2a
=7	=7	=7	=7
1E	1B	1e	2a]
.	.	.	2g#i
1AA	1A	2r	1a
.	.	2c	.
=8	=8	=8	=8
2r	2r	1c	2r
2C	2G	.	2e
1C	2.G	2r	1e
.	.	2c	.
.	8FL	.	.
.	8GJ	.	.
=9	=9	=9	=9
2r	2A	1c	2r
2C	1G	.	2e
1D	.	[1A	1f
.	4F	.	.
.	4E	.	.
=10	=10	=10	=10
1D	2F	2A]	1f
.	2F	2B	.
[1C	1G	2c	4e
.	.	.	4d
.	.	2G	4e
.	.	.	4f
=11	=11	=11	=11
2C]	2r	2.c	2g
2AA	2c	.	2a
.	.	4d	.
2C	2.c	2e	2g
2AA	.	2c	[2f
.	4B	.	.
=12	=12	=12	=12
1C	2A	2c	4f]
.	.	.	4e
.	2G	2c	1e
1D	1F	2.A	.
.	.	.	2d
.	.	4B	.
=13	=13	=13	=13
4AA	4E	1c	0e
4BB	4D	.	.
4C	4E	.	.
4D	4F	.	.
1E	1G	1B	.
=14	=14	=14	=14
2r	2r	2r	2r
2AA	1c	1e	2e
1E	.	.	1g
.	2B	2e	.
=15	=15	=15	=15
0F	1A	1c	0a
.	4A	4c	.
.	4G	4B	.
.	4A	4c	.
.	4B	4d	.
=16	=16	=16	=16
4C	1c	1e	4g
4D	.	.	4f
4E	.	.	4g
4F	.	.	4a
1G	2r	2r	1b
.	2B	2d	.
=17	=17	=17	=17
2r	2B	2d	2r
2G	2B	2d	2b
2.A	2A	2c	2.cc
.	[2c	2e	.
4G	.	.	4b
=18	=18	=18	=18
2F	2c]	2f	2a
2G	2B	2.d	1g
1D	1A	.	.
.	.	4c	.
.	.	2d	2f#i
=19	=19	=19	=19
1G	1G	1B	1g
1r	1r	1r	1r
=20	=20	=20	=20
1E	1B	1e	0b
1E	1B	[1e	.
=21	=21	=21	=21
1C	1c	1e]	1g
[1F	[1A	[1c	2a
.	.	.	[2cc
=22	=22	=22	=22
1F]	1A]	2c]	2cc]
.	.	2d	4b
.	.	.	4a
[1E	1B	[1e	[1g
=23	=23	=23	=23
1E]	2r	1e]	1g]
.	2B	.	.
2r	2B	2r	2r
2E	2B	2e	2g
=24	=24	=24	=24
2E	2G	2e	2g
2E	2.c	2e	2g
[1F	.	[1c	4a
.	4B	.	4g
.	4A	.	4a
.	4G	.	4b
=25	=25	=25	=25
2F]	2A	2c]	2cc
2G	2B	2g	2.b
2A	2c	2e	.
.	.	.	4a
2D	2d	2f	[2a
=26	=26	=26	=26
1E	1B	1e	2a]
.	.	.	2g#i
[1AAl	[1Al	[1el	[1al
=27	=27	=27	=27
00AA]	00A]	00e]	00a]
==	==	==	==
*-	*-	*-	*-
!!!system-decoration: [*]
!!!RDF**kern: i = editorial accidental
!!!RDF**kern: l = terminal long
!!!ENC: Benjamin Ory
!!!END: 2024/12/6
!!!EED: Benjamin Ory
!!!EEV: 2024/12/06
!!!YEC: Copyright 2024 Benjamin Ory, All Rights Reserved
!!!ONB: Translated from MusicXML on 2024/12/06